Numix-GalliumOS/48/emblems/emblem-insync-error.svg

<?xml version="1.0" encoding="UTF-8" standalone="no"?>
<svg
   xmlns:dc="http://purl.org/dc/elements/1.1/"
   xmlns:cc="http://creativecommons.org/ns#"
   xmlns:rdf="http://www.w3.org/1999/02/22-rdf-syntax-ns#"
   xmlns:svg="http://www.w3.org/2000/svg"
   xmlns="http://www.w3.org/2000/svg"
   xmlns:sodipodi="http://sodipodi.sourceforge.net/DTD/sodipodi-0.dtd"
   xmlns:inkscape="http://www.inkscape.org/namespaces/inkscape"
   width="48"
   viewBox="0 0 48 48"
   height="48"
   id="svg2"
   version="1.1"
   inkscape:version="0.91 r"
   sodipodi:docname="emblem-insync-error.svg">
  <metadata
     id="metadata12">
    <rdf:RDF>
      <cc:Work
         rdf:about="">
        <dc:format>image/svg+xml</dc:format>
        <dc:type
           rdf:resource="http://purl.org/dc/dcmitype/StillImage" />
        <dc:title></dc:title>
      </cc:Work>
    </rdf:RDF>
  </metadata>
  <defs
     id="defs10" />
  <sodipodi:namedview
     pagecolor="#ffffff"
     bordercolor="#666666"
     borderopacity="1"
     objecttolerance="10"
     gridtolerance="10"
     guidetolerance="10"
     inkscape:pageopacity="0"
     inkscape:pageshadow="2"
     inkscape:window-width="1366"
     inkscape:window-height="747"
     id="namedview8"
     showgrid="false"
     inkscape:zoom="4.9166667"
     inkscape:cx="24"
     inkscape:cy="24"
     inkscape:window-x="0"
     inkscape:window-y="21"
     inkscape:window-maximized="1"
     inkscape:current-layer="svg2" />
  <path
     style="fill:#dc322f;stroke:#777;stroke-width:0.792;fill-opacity:1"
     d="m 43.604269,24.000062 a 19.604206,19.604156 0 0 1 -39.2084117,0 19.604206,19.604156 0 1 1 39.2084117,0 z"
     id="path4" />
  <path
     style="fill:#ffffff;fill-opacity:1"
     d="M 30.461541,12 23.999999,18.461537 17.538464,12 12,17.53846 18.461541,23.999997 12,30.461536 17.538464,36 23.999999,29.538457 30.461541,36 36,30.461536 29.538464,23.999997 36,17.53846 30.461541,12 z"
     id="path6" />
</svg>

<svg xmlns="http://www.w3.org/2000/svg" viewBox="0 0 48 48">
 <path d="m 43.604 24 a 19.604 19.604 0 0 1 -39.21 0 19.604 19.604 0 1 1 39.21 0 z" style="fill:#dc322f;fill-opacity:1;stroke:#777;stroke-width:0.792"/>
 <path d="m 30.462 12 -6.462 6.462 -6.462 -6.462 -5.538 5.538 6.462 6.462 -6.462 6.462 5.538 5.538 6.462 -6.462 6.462 6.462 5.538 -5.538 -6.462 -6.462 6.462 -6.462 -5.538 -5.538 z" style="fill:#fff;fill-opacity:1"/>
</svg>
